src/assets/images/icon-iPhones.svg

<svg width="56" height="80" viewBox="0 0 56 80" fill="none" xmlns="http://www.w3.org/2000/svg">
<g clip-path="url(#clip0)">
<path fill-rule="evenodd" clip-rule="evenodd" d="M5.7732 0.102417C2.58475 0.102417 0 2.68716 0 5.87561V72.4291C0 75.6175 2.58475 78.2022 5.7732 78.2022H31.6242C34.8126 78.2022 37.3974 75.6175 37.3974 72.4291V5.87561C37.3974 2.68716 34.8126 0.102417 31.6242 0.102417H5.7732ZM5.52858 1.6927C3.40295 1.6927 1.67978 3.41586 1.67978 5.54149V11.4495C1.67978 13.5752 3.40295 15.2983 5.52858 15.2983H11.4461C13.5717 15.2983 15.2949 13.5752 15.2949 11.4495V5.54149C15.2949 3.41586 13.5717 1.6927 11.4461 1.6927H5.52858Z" fill="#3F3F3F"/>
<circle cx="5.77317" cy="11.4502" r="2.4055" fill="#3F3F3F"/>
<circle cx="5.77317" cy="5.09965" r="2.4055" fill="#3F3F3F"/>
<circle cx="11.5464" cy="8.17869" r="2.4055" fill="#3F3F3F"/>
<circle cx="11.5465" cy="3.94501" r="1.15464" fill="#BDBDBD"/>
<circle r="0.28866" transform="matrix(-1 0 0 1 11.5463 12.701)" fill="#BDBDBD"/>
<path d="M24.5161 6.04714C20.9025 6.04714 17.9732 8.97651 17.9732 12.5901V72.4291C17.9732 76.0426 20.9025 78.972 24.5161 78.972H48.6873C52.3009 78.972 55.2303 76.0426 55.2303 72.4291V12.5901C55.2303 8.97652 52.3009 6.04714 48.6873 6.04714H24.5161Z" fill="#3F3F3F" stroke="#FBFBFD" stroke-width="1.53952"/>
<circle cx="25.9793" cy="11.835" r="2.02062" fill="#3F3F3F" stroke="#FBFBFD" stroke-width="0.57732"/>
</g>
<defs>
<clipPath id="clip0">
<path d="M0 0H56V79.7663H0V0Z" fill="white"/>
</clipPath>
</defs>
</svg>

<svg width="56" height="80" viewBox="0 0 56 80" 
    xmlns="http://www.w3.org/2000/svg" fill="none">
    <g clip-path="url(#a)">
        <path fill-rule="evenodd" clip-rule="evenodd" d="M5.773.102c-3.188 0-5.773 2.585-5.773 5.773v66.553c0 3.188 2.585 5.773 5.773 5.773h25.851c3.188 0 5.773-2.585 5.773-5.773v-66.553c0-3.188-2.585-5.773-5.773-5.773h-25.851zm-.245 1.59c-2.126 0-3.849 1.723-3.849 3.849v5.908c0 2.126 1.723 3.849 3.849 3.849h5.918c2.126 0 3.849-1.723 3.849-3.849v-5.908c0-2.126-1.723-3.849-3.849-3.849h-5.918z" fill="#3F3F3F"/>
        <circle cx="5.773" cy="11.45" r="2.405" fill="#3F3F3F"/>
        <circle cx="5.773" cy="5.1" r="2.405" fill="#3F3F3F"/>
        <circle cx="11.546" cy="8.179" r="2.405" fill="#3F3F3F"/>
        <circle cx="11.546" cy="3.945" r="1.155" fill="#BDBDBD"/>
        <circle r=".289" transform="matrix(-1 0 0 1 11.546 12.701)" fill="#BDBDBD"/>
        <path d="M24.516 6.047c-3.614 0-6.543 2.929-6.543 6.543v59.839c0 3.613 2.929 6.543 6.543 6.543h24.171c3.614 0 6.543-2.929 6.543-6.543v-59.839c0-3.614-2.929-6.543-6.543-6.543h-24.171z" fill="#3F3F3F" stroke="#FBFBFD" stroke-width="1.54"/>
        <circle cx="25.979" cy="11.835" r="2.021" fill="#3F3F3F" stroke="#FBFBFD" stroke-width=".577"/>
    </g>
    <defs>
        <clipPath id="a">
            <path d="M0 0h56v79.766h-56v-79.766z" fill="#fff"/>
        </clipPath>
    </defs>
</svg>
